icon-themes/sifr_svg/cmd/sc_cleararrows.svg

<svg viewBox="0 0 16 16" xmlns="http://www.w3.org/2000/svg"><path d="m2 1c-.554 0-1 .446-1 1v4c0 .554.446 1 1 1h4c.554 0 1-.446 1-1v-4c0-.554-.446-1-1-1zm9 0v1c0 .2653.0931.53058.28125.71875l.28125.28125h-3.5625v2h3.5625l-.28125.28125c-.18811.18818-.28129.45344-.28125.71875v1h1c.26529 0 .53057-.09304.71875-.28125l2-2 .28125-.28125v-.875l-.28125-.28125-2-2c-.18817-.18814-.45344-.2812198-.71875-.28125zm-8 2h2v2h-2zm11.5 4c-.37 0-.7.1507812-1 .4003906l-3.9492188 3.5996094h1.4492188l3.130859-2.8398438c.15-.16.239141-.1601562.369141-.1601562h.5v.5c0 .28.22.5.5.5s.5-.22.5-.5v-.5c0-.7-.15753-1-1-1zm-11.5 1v3.5625l-.28125-.28125c-.18818-.18811-.45344-.28129-.71875-.28125h-1v1c0 .26529.09304.53057.28125.71875l2 2 .28125.28125h.875l.28125-.28125 2-2c.18814-.18817.2812198-.45344.28125-.71875v-1h-1c-.2653 0-.53058.0931-.71875.28125l-.28125.28125v-3.5625zm5 3v1l1.5 1.5-1.5 1.5v1h1l1.5-1.5 1.5 1.5h1v-1l-1.5-1.5 1.5-1.5v-1h-1l-1.5 1.5-1.5-1.5z" fill="#555753"/></svg>

<svg xmlns="http://www.w3.org/2000/svg" viewBox="0 0 16 16">
  <path
     style="fill:#555753"
     d="M 2 1 C 1.446 1 1 1.446 1 2 L 1 6 C 1 6.554 1.446 7 2 7 L 6 7 C 6.554 7 7 6.554 7 6 L 7 2 C 7 1.446 6.554 1 6 1 L 2 1 z M 11 1 L 11 2 C 11 2.2653 11.0931 2.53058 11.28125 2.71875 L 11.5625 3 L 8 3 L 8 5 L 11.5625 5 L 11.28125 5.28125 C 11.09314 5.46943 10.99996 5.73469 11 6 L 11 7 L 12 7 C 12.26529 7 12.53057 6.90696 12.71875 6.71875 L 14.71875 4.71875 L 15 4.4375 L 15 3.5625 L 14.71875 3.28125 L 12.71875 1.28125 C 12.53058 1.09311 12.26531 1.0000302 12 1 L 11 1 z M 3 3 L 5 3 L 5 5 L 3 5 L 3 3 z M 14.5 7 C 14.13 7 13.8 7.1507812 13.5 7.4003906 L 9.5507812 11 L 11 11 L 14.130859 8.1601562 C 14.280859 8.0001562 14.37 8 14.5 8 L 15 8 L 15 8.5 C 15 8.78 15.22 9 15.5 9 C 15.78 9 16 8.78 16 8.5 L 16 8 C 16 7.3 15.84247 7 15 7 L 14.5 7 z M 3 8 L 3 11.5625 L 2.71875 11.28125 C 2.53057 11.09314 2.26531 10.99996 2 11 L 1 11 L 1 12 C 1 12.26529 1.09304 12.53057 1.28125 12.71875 L 3.28125 14.71875 L 3.5625 15 L 4.4375 15 L 4.71875 14.71875 L 6.71875 12.71875 C 6.90689 12.53058 6.9999698 12.26531 7 12 L 7 11 L 6 11 C 5.7347 11 5.46942 11.0931 5.28125 11.28125 L 5 11.5625 L 5 8 L 3 8 z M 8 11 L 8 12 L 9.5 13.5 L 8 15 L 8 16 L 9 16 L 10.5 14.5 L 12 16 L 13 16 L 13 15 L 11.5 13.5 L 13 12 L 13 11 L 12 11 L 10.5 12.5 L 9 11 L 8 11 z "
     />
</svg>
